X:405
T: Laura's Delight
T: Aoibhneas Laura
C: J.McMahon
S: B.Breathnach:"Ceol Rince na hEireann" IV/28
Z: B.Black
N: No repeats
L: 1/8
M: 6/8
R: jig
K: Em
(3c/B/A/|GEG EDB,|A,B,G, A,B,D|EGA Bde|gag edB|
AGB AGE|EDB, E2F|GAB deg|edB A2 :|
B|deg agb|age deg|B3 deg|agb age|
deg agb|age deg|B3 deg|edB A2 :|
